X: 35313
T: Rose Without Rue, The
R: reel
M: 4/4
K: Gmajor
D2|DGGG GFED|EFGE G3 B/c/|dBcA BGAF|EFGE D3
B/c/|dBcA BGAF|EFGE D3 C|B,DEF GFGA|BGGG G2:|
GA|BGEE E2 FG|AFDD D3 C|B,DEF GFGA|BGGG G2:|

